X:1
T:Oh! Susanna
T:Oh! Susanna
T:Stephen C. Foster
%%score [ 1 2 3 4 ]
L:1/8
M:2/4
K:G
V:1 treble nm="Soprano"
V:2 treble nm="Alto"
V:3 treble-8 nm="Tenor"
V:4 bass nm="Bass"
V:1
 (G/A/) | B d d e | d B G3/2 A/ | B B A G | A3 (G/A/) | B d d3/2 e/ | d B (G3/2 A/) | B B A A | %8
w: 1.I _|came from Al- a-|ba- ma with My|ban- jo on my|knee, I'm _|goin' to Lou- 'si-|an- a, My _|true love for to|
w: 2.I _|had a dream the|oth- er night, When|ev- ry- thing was|still; I _|thought I saw Su-|san- na A _|com- ing down the|
 G2 z (G/A/) | B d d e | d B G3/2 A/ | B B A G | A3 (G/A/) | B d d e | d B G3/2 A/ | %15
w: see. It _|rain'd all night the|day I left, The|weath- er it was|dry; The _|sun so hot I|froze to death; Su-|
w: hill. The _|buck- wheat cake was|in her mouth, The|tear was in her|eye; Says _|I, I'm com- ing|from the south, Su-|
 B/ B3/2 A3/2 A/ | G3 z || c2 c2 | e e2 e | d d B G | A3 G/ A/ | B d d e | d B G3/2 A/ | B B A A | %24
w: san- na, don't you|cry.|Oh! Su-|san- na, oh,|don't you cry for|me, For I'm|goin' to Lou- 'si-|an- a with my|ban- jo on my|
w: san- na, don't you|cry.||||||||
 G3 |] %25
w: knee.|
w: |
V:2
 G | G G G G | G G G3/2 G/ | G G D D | F3 G | G G G3/2 G/ | G G G2 | G G F F | G2 z G | G G G G | %10
w: 1.I|came from Al- a-|ba- ma with My|ban- jo on my|knee, I'm|goin' to Lou- 'si-|an- a, My|true love for to|see. It|rain'd all night the|
w: 2.I|had a dream the|oth- er night, When|ev- ry- thing was|still; I|thought I saw Su-|san- na A|com- ing down the|hill. The|buck- wheat cake was|
 G G G3/2 G/ | G G G E | F3 G | G G G G | G G G3/2 G/ | G/ G3/2 F3/2 F/ | G3 z || E2 E2 | G G2 G | %19
w: day I left, The|weath- er it was|dry; The|sun so hot I|froze to death; Su-|san- na, don't you|cry.|Oh! Su-|san- na, oh,|
w: in her mouth, The|tear was in her|eye; Says|I, I'm com- ing|from the south, Su-|san- na, don't you|cry.|||
 G G G G | F3 G/ G/ | G G G G | G G G3/2 G/ | G G F F | G3 |] %25
w: don't you cry for|me, For I'm|goin' to Lou- 'si-|an- a with my|ban- jo on my|knee.|
w: ||||||
V:3
 (B/c/) | d B B c | B d B3/2 c/ | d d c B | d3 (B/c/) | d B B3/2 c/ | B d (B3/2 c/) | d d c c | %8
w: 1.I _|came from Al- a-|ba- ma with My|ban- jo on my|knee, I'm _|goin' to Lou- 'si-|an- a, My _|true love for to|
w: 2.I _|had a dream the|oth- er night, When|ev- ry- thing was|still; I _|thought I saw Su-|san- na A _|com- ing down the|
 B2 z (B/c/) | d B B c | B d B3/2 c/ | d d ^c c | d3 (B/c/) | d B B c | B d B3/2 e/ | %15
w: see. It _|rain'd all night the|day I left, The|weath- er it was|dry; The _|sun so hot I|froze to death; Su-|
w: hill. The _|buck- wheat cake was|in her mouth, The|tear was in her|eye; Says _|I, I'm com- ing|from the south, Su-|
 d/ d3/2 c3/2 c/ | B3 z || c2 c2 | c c2 c | B B d B | d3 B/ c/ | d B B c | B d B3/2 e/ | d d c c | %24
w: san- na, don't you|cry.|Oh! Su-|san- na, oh,|don't you cry for|me, For I'm|goin' to Lou- 'si-|an- a with my|ban- jo on my|
w: san- na, don't you|cry.||||||||
 B3 |] %25
w: knee.|
w: |
V:4
 G, | G, G, G, G, | G, G, G,3/2 G,/ | G, G, G, G, | D,3 G, | G, G, G,3/2 G,/ | G, G, G,2 | %7
w: 1.I|came from Al- a-|ba- ma with My|ban- jo on my|knee, I'm|goin' to Lou- 'si-|an- a, My|
w: 2.I|had a dream the|oth- er night, When|ev- ry- thing was|still; I|thought I saw Su-|san- na A|
 D, D, D, D, | G,2 z G, | G, G, G, G, | G, G, G,3/2 G,/ | G, G, E, A, | D,3 G, | G, G, G, G, | %14
w: true love for to|see. It|rain'd all night the|day I left, The|weath- er it was|dry; The|sun so hot I|
w: com- ing down the|hill. The|buck- wheat cake was|in her mouth, The|tear was in her|eye; Says|I, I'm com- ing|
 G, G, G,3/2 C,/ | D,/ D,3/2 D,3/2 D,/ | G,3 z || C,2 C,2 | C, C,2 C, | G, G, G, G, | D,3 G,/ G,/ | %21
w: froze to death; Su-|san- na, don't you|cry.|Oh! Su-|san- na, oh,|don't you cry for|me, For I'm|
w: from the south, Su-|san- na, don't you|cry.|||||
 G, G, G, G, | G, G, G,3/2 C,/ | D, D, D, D, | G,3 |] %25
w: goin' to Lou- 'si-|an- a with my|ban- jo on my|knee.|
w: ||||

